data/styles/clear/style-clear/symbols/jewelry-m.svg

<svg height="24" viewBox="0 0 24 24" width="24"><g fill="none" fill-rule="evenodd"><circle cx="12" cy="12" fill="#fff" opacity=".6" r="12"/><circle cx="12" cy="12" fill="#8c5f93" r="11"/><path d="m13.0789091 8.315 2.7392727-2.24357143v-1.07142857h-7.63636362v1.07142857l2.61272732 2.26178572c-2.73600005.54857142-4.7945455 2.92392861-4.7945455 5.77392861 0 3.255 2.68690909 5.8928571 6 5.8928571 3.3130909 0 6-2.6378571 6-5.8928571 0-2.8917858-2.1229091-5.29178576-4.9210909-5.7921429zm-1.0789091 9.8528571c-2.28 0-4.13454545-1.8214285-4.13454545-4.0607142 0-2.2392858 1.85454545-4.0607143 4.13454545-4.0607143s4.1345455 1.8214285 4.1345455 4.0607143c0 2.2392857-1.8545455 4.0607142-4.1345455 4.0607142z" fill="#fff"/></g></svg>

<svg width="24" height="24" viewBox="0 0 24 24">
  <g fill="none" fill-rule="evenodd">
    <circle cx="12" cy="12" r="12" fill="#FFF" opacity=".6"/>
    <circle cx="12" cy="12" r="11" fill="#8C5F93"/>
    <path fill="#FFF" d="M13.0789091,8.315 L15.8181818,6.07142857 L15.8181818,5 L8.18181818,5 L8.18181818,6.07142857 L10.7945455,8.33321429 C8.05854545,8.88178571 6,11.2571429 6,14.1071429 C6,17.3621429 8.68690909,20 12,20 C15.3130909,20 18,17.3621429 18,14.1071429 C18,11.2153571 15.8770909,8.81535714 13.0789091,8.315 L13.0789091,8.315 Z M12,18.1678571 C9.72,18.1678571 7.86545455,16.3464286 7.86545455,14.1071429 C7.86545455,11.8678571 9.72,10.0464286 12,10.0464286 C14.28,10.0464286 16.1345455,11.8678571 16.1345455,14.1071429 C16.1345455,16.3464286 14.28,18.1678571 12,18.1678571 L12,18.1678571 Z"/>
  </g>
</svg>
